X: 1959
T: Art's
R: jig
M: 6/8
K: Edorian
D|:~E3 BAG|~F3 AFD|~E3 BAG|FAF E2D|
~E3 BAG|~F3 AFD|E2E BAG|1 FAF E2D:|2 FAF E2A||
|:Bee ede|fef dBA|Bee ede|fdd d2A|
Bee ede|fef dBA|GFG AGA|1 BEE E2A:|2 BEE E2D||

